src/topics/icons/aws-api-gateway.svg

<svg height="310" preserveAspectRatio="xMidYMid" viewBox="0 0 256 310" width="256" xmlns="http://www.w3.org/2000/svg"><g transform="translate(153 46)"><path d="m103 91.042-62.152 2.575-40.289-2.57 66.64-6.387z" fill="#634b1e"/><path d="m67.055 87.45 35.945 3.592v-72.406l-35.945-17.975-2.76 2.98v80.728z" fill="#d9a740"/><path d="m.559 18.594 66.496-17.997v86.853l-66.496 3.597z" fill="#886a2a"/></g><g transform="translate(0 46)"><path d="m0 91.042 62.152 2.575 40.289-2.57-66.45-7.117z" fill="#634b1e"/><path d="m35.945 87.45-35.945 3.485v-72.625l35.945-17.945 1.655 3.091v81.281z" fill="#886a2a"/><path d="m102.441 18.594-66.496-17.997v86.853l66.496 3.597z" fill="#d9a740"/></g><g transform="translate(153 171)"><path d="m103 3.486-62.152-2.576-40.289 2.571 66.35 6.707z" fill="#fad791"/><path d="m67.055 7.078 35.945-3.592v72.405l-35.945 17.975-1.888-4.111v-78.983z" fill="#d9a740"/><path d="m.559 75.934 66.496 17.997v-86.853l-66.496-3.597z" fill="#886a2a"/></g><g transform="translate(0 171)"><path d="m0 3.486 62.152-2.576 40.289 2.571-66.931 7.288z" fill="#fad791"/><path d="m35.945 7.078-35.945-3.592v72.405l35.945 17.975 2.179-3.24v-79.857z" fill="#886a2a"/><path d="m102.441 75.934-66.496 17.997v-86.853l66.496-3.597z" fill="#d9a740"/></g><g transform="translate(55)"><path d="m40.553 106.629 32.966-5.781 65.814 9.319 5.669 3.261-31.966 3.498z" fill="#634b1e"/><path d="m105.447 106.629-32.966-5.781-68.648 10.652-2.835 1.928 31.966 3.498z" fill="#634b1e"/><path d="m40.553 204.899 32.966 5.781 65.648-9.18 5.835-3.4-31.966-3.498z" fill="#fad791"/><path d="m105.447 204.899-32.966 5.781-69.148-9.847-2.335-2.733 31.966-3.498z" fill="#fad791"/><path d="m145.002 113.428v-35.787l-33.713-11.025v-46.84l-38.289-19.142v.001l-1.597 2.543-.291 302.588 1.888 3.891 38.289-19.142v-45.603l33.713-11.025v-35.787l-33.713 5.935v-96.542z" fill="#d9a740"/><path d="m34.711 19.776v46.84l-33.713 11.025v35.787l33.713-5.935v96.542l-33.713-5.935v35.787l33.713 11.025v45.603l38.289 19.142v-309.023z" fill="#886a2a"/></g></svg>

<?xml version="1.0" encoding="UTF-8" standalone="no"?>
<svg width="256px" height="310px" viewBox="0 0 256 310" version="1.1" xmlns="http://www.w3.org/2000/svg" xmlns:xlink="http://www.w3.org/1999/xlink" preserveAspectRatio="xMidYMid">
	<g>
		<g transform="translate(153.000000, 46.000000)">
			<path d="M103,91.042 L40.848,93.617 L0.559,91.047 L67.199,84.66 L103,91.042" fill="#634B1E"></path>
			<path d="M67.055,87.45 L103,91.042 L103,18.636 L67.055,0.661 L64.295,3.641 L64.295,84.369 L67.055,87.45" fill="#D9A740"></path>
			<path d="M0.559,18.594 L67.055,0.597 L67.055,87.45 L0.559,91.047 L0.559,18.594" fill="#886A2A"></path>
		</g>
		<g transform="translate(0.000000, 46.000000)">
			<path d="M0,91.042 L62.152,93.617 L102.441,91.047 L35.991,83.93 L0,91.042" fill="#634B1E"></path>
			<path d="M35.945,87.45 L0,90.935 L0,18.31 L35.945,0.365 L37.6,3.456 L37.6,84.737 L35.945,87.45" fill="#886A2A"></path>
			<path d="M102.441,18.594 L35.945,0.597 L35.945,87.45 L102.441,91.047 L102.441,18.594" fill="#D9A740"></path>
		</g>
		<g transform="translate(153.000000, 171.000000)">
			<path d="M103,3.486 L40.848,0.91 L0.559,3.481 L66.909,10.188 L103,3.486" fill="#FAD791"></path>
			<path d="M67.055,7.078 L103,3.486 L103,75.891 L67.055,93.866 L65.167,89.755 L65.167,10.772 L67.055,7.078" fill="#D9A740"></path>
			<path d="M0.559,75.934 L67.055,93.931 L67.055,7.078 L0.559,3.481 L0.559,75.934" fill="#886A2A"></path>
		</g>
		<g transform="translate(0.000000, 171.000000)">
			<path d="M0,3.486 L62.152,0.91 L102.441,3.481 L35.51,10.769 L0,3.486" fill="#FAD791"></path>
			<path d="M35.945,7.078 L0,3.486 L0,75.891 L35.945,93.866 L38.124,90.626 L38.124,10.769 L35.945,7.078" fill="#886A2A"></path>
			<path d="M102.441,75.934 L35.945,93.931 L35.945,7.078 L102.441,3.481 L102.441,75.934" fill="#D9A740"></path>
		</g>
		<g transform="translate(55.000000, 0.000000)">
			<path d="M40.553,106.629 L73.519,100.848 L139.333,110.167 L145.002,113.428 L113.036,116.926 L40.553,106.629" fill="#634B1E"></path>
			<path d="M105.447,106.629 L72.481,100.848 L3.833,111.5 L0.998,113.428 L32.964,116.926 L105.447,106.629" fill="#634B1E"></path>
			<path d="M40.553,204.899 L73.519,210.68 L139.167,201.5 L145.002,198.1 L113.036,194.602 L40.553,204.899" fill="#FAD791"></path>
			<path d="M105.447,204.899 L72.481,210.68 L3.333,200.833 L0.998,198.1 L32.964,194.602 L105.447,204.899" fill="#FAD791"></path>
			<path d="M145.002,113.428 L145.002,77.641 L111.289,66.616 L111.289,19.776 L73,0.634 L73,0.635 L71.403,3.178 L71.112,305.766 L73,309.657 L111.289,290.515 L111.289,244.912 L145.002,233.887 L145.002,198.1 L111.289,204.035 L111.289,107.493 L145.002,113.428" fill="#D9A740"></path>
			<path d="M34.711,19.776 L34.711,66.616 L0.998,77.641 L0.998,113.428 L34.711,107.493 L34.711,204.035 L0.998,198.1 L0.998,233.887 L34.711,244.912 L34.711,290.515 L73,309.657 L73,0.634 L34.711,19.776" fill="#886A2A"></path>
		</g>
	</g>
</svg>
